!!!OTL: Der Kuckuck.
!!!OTL-incipit: DER KUCKUK AUF DEM ZAUNE SASS
!!!ARE: Europa, Mitteleuropa, Deutschland, Pfalz, Elsass
!!!SCT: Z1314
!!!TXL: @@DE
!!!YEM: Copyright 1995, estate of Helmut Schaffrath.
**kern	**text
*ICvox	*
*M2/4	*
*k[f#]	*
*G:	*
!LO:TX:a:t=Vorſänger.	!
!LO:TX:a:t=Aus der Pfalʒ und dem Elſaß.	!
{8d	Der
=1	=1
8.g	Kuk-
16b/	-kuk
8dd	auf
8gg	dem
=2	=2
8ee	Ʒau-
8ee	-ne
4dd	ſaß,
=3	=3
!LO:TX:a:t=Alle.	!
8.dd/	Val-
16dd/	-le-
8b/	-ra!
16r}	.
!LO:TX:a:t=Vorſänger.	!
{16b/	er
=4	=4
8b/	wird
8b	von
8b	Schnee
8dd	und
=5	=5
8cc	Schau'r
8cc	nicht
8.a}	naß.
!LO:TX:a:t=Alle.	!
{16a	Der
=6	=6
8cc/	Kuk-
16cc/	-kuk
16cc/	er
8cc/	rief:
8ee	nicht
=7	=7
8dd	naß!
8dd	Kuk-
8b/	-kuk!
!LO:TX:a:t=Vorſänger.	!
16b	und
16b	er
=8	=8
8dd	rief:
!LO:TX:a:t=Alle.	!
8a	Kuk-
8g}	-kuk!
==	==
!!!AGN: Zech -, Schalks - Lied
!!!ONB: ESAC (Essen Associative Code) Database: ZUCCAL
!!!AMT: simple duple
!!!AIN: vox
!!!EED: Helmut Schaffrath
!!!EEV: 1.0
!!!GTL: VIII. Zech- und Schalks-Lieder.
!!!URL-scan: https://www.digitale-sammlungen.de/de/view/bsb11160573?page=574
!!!ENC: Anna Maria Matuszewska
!!!EEV: 2025/02/07
*-	*-
